build/images/fb-icons/color-picker.svg

<svg xmlns="http://www.w3.org/2000/svg" preserveAspectRatio="xMidYMid" width="16" height="31" viewBox="0 0 16 31"><defs><style>.cls-1{fill:#777;fill-rule:evenodd}</style></defs><path d="M15.502 5.041l-1.86 3.025.33.207c.958.601 1.24 1.891.631 2.883-.61.991-1.881 1.308-2.839.707l-.654-.41-4.456 7.301c-.411.668-1.856.755-2.29 1.073a.695.695 0 0 1-.782.033l-2.265.579a.708.708 0 0 1-.316-.723c.089-.532.413-3.323.824-3.991l4.456-7.302-.655-.41c-.957-.601-1.24-1.892-.63-2.884.609-.991 1.88-1.308 2.838-.707l.33.207 1.86-3.024C10.986.039 12.993-.461 14.506.488c1.513.949 1.959 2.988.996 4.553zm-7.514 6.047a3.16 3.16 0 0 1-1.04-1.066l-3.009 4.949 1.524 3.036 3.932-6.45a3.123 3.123 0 0 1-1.407-.469zM4.03 23.032a.338.338 0 0 1 .42.022c.111.1 2.715 2.481 2.54 4.623-.15 1.834-1.569 3.098-3.374 3.004-1.755-.091-2.875-1.456-2.723-3.32.184-2.253 3.016-4.245 3.137-4.329zm-.024 6.838a.396.396 0 0 0 .084-.006c.676-.133 1.985-.779 2.107-2.273a.324.324 0 0 0-.309-.351.348.348 0 0 0-.364.317c-.109 1.34-1.485 1.638-1.547 1.651a.346.346 0 0 0-.276.393.326.326 0 0 0 .305.269z" class="cls-1"/></svg>

<svg xmlns="http://www.w3.org/2000/svg" xmlns:xlink="http://www.w3.org/1999/xlink" preserveAspectRatio="xMidYMid" width="16" height="31" viewBox="0 0 16 31">
  <defs>
    <style>
      .cls-1 {
        fill: #777;
        fill-rule: evenodd;
      }
    </style>
  </defs>
  <path d="M15.502,5.041 L13.642,8.066 L13.972,8.273 C14.930,8.874 15.212,10.164 14.603,11.156 C13.993,12.147 12.722,12.464 11.764,11.863 L11.110,11.453 L6.654,18.754 C6.243,19.422 4.798,19.509 4.364,19.827 C4.131,19.998 3.822,20.011 3.582,19.860 L1.317,20.439 C1.077,20.289 0.952,20.004 1.001,19.716 C1.090,19.184 1.414,16.393 1.825,15.725 L6.281,8.423 L5.626,8.013 C4.669,7.412 4.386,6.121 4.996,5.129 C5.605,4.138 6.876,3.821 7.834,4.422 L8.164,4.629 L10.024,1.605 C10.986,0.039 12.993,-0.461 14.506,0.488 C16.019,1.437 16.465,3.476 15.502,5.041 ZM7.988,11.088 C7.548,10.812 7.199,10.444 6.948,10.022 L3.939,14.971 L5.463,18.007 L9.395,11.557 C8.910,11.517 8.428,11.364 7.988,11.088 ZM4.030,23.032 C4.161,22.941 4.335,22.950 4.450,23.054 C4.561,23.154 7.165,25.535 6.990,27.677 C6.840,29.511 5.421,30.775 3.616,30.681 C1.861,30.590 0.741,29.225 0.893,27.361 C1.077,25.108 3.909,23.116 4.030,23.032 ZM4.006,29.870 C4.034,29.871 4.062,29.869 4.090,29.864 C4.766,29.731 6.075,29.085 6.197,27.591 C6.212,27.407 6.074,27.250 5.888,27.240 C5.702,27.230 5.539,27.372 5.524,27.557 C5.415,28.897 4.039,29.195 3.977,29.208 C3.793,29.245 3.670,29.421 3.701,29.601 C3.728,29.754 3.856,29.862 4.006,29.870 Z" class="cls-1"/>
</svg>
